X:1
T:Title
%%score ( 1 2 ) ( 3 4 )
L:1/8
Q:1/4=105
M:4/4
K:Bb
V:1 treble nm="Grand Piano, Soprano"
V:2 treble 
V:3 bass nm="Choir Pad, We’ll Be Like Him"
V:4 bass 
V:1
 [B,D]>[CE] [DF]2 [DB]2 [DB]2 | [FB]>[FA] [EG]2 [Ec]2 [Ec]2 | [=EB]>[EB] [FA]4 [_EG]2 | %3
w: By~Robert~Lawrence~Powell * * * *|||
 [EA]>[EA] [DG]4 [DF]2 | [B,D]>[CE] [DF]2 [DB]2 [Fd]2 | [Fc]>[FB] [Ec]2 [EG]2 [Gc]2 | %6
w: |||
 [Fc]>[Fc] [=Ed]2 [Ec]2 [EB]2 | [=EG]2 F6 | [Ff]>[Fe] [Fd]4 [DB]2 | [Ec]>[DB] [EA]2 [EG]2 [EG]2 | %10
w: ||||
 [Fe]>[Fd] [Ec]4 [EA]2 | [EG]>[EA] [DG]2 [DF]2 [DF]2 | [FB]>[Fc] [Fd]2 [Bf]2 [Bf]2 | %13
w: |||
 [Fe]>[Fd] [Gc]2 [EG]2 [EG]2 | [Gc]>[Gc] [Ff]2 [Ge]2 [Fd]2 | z2 B6- | B6 z2 |] %17
w: ||||
V:2
 x8 | x8 | x8 | x8 | x8 | x8 | x8 | x8 | x8 | x8 | x8 | x8 | x8 | x8 | x8 | [Ec]2 D2 E>E D2- | %16
 D6 z2 |] %17
V:3
 [B,,F,]>[B,,F,] [B,,B,]2 [B,,F,]2 [B,,F,]2 | [D,B,]>[D,B,] [E,B,]2 [E,G,]2 [E,G,]2 | %2
 [C,C]>[C,C] [F,C]2 [F,C]2 [F,A,]2 | [F,C]>[F,C] [B,,B,]2 [B,,B,]2 [B,,B,]2 | %4
 [B,,F,]>[B,,F,] [B,,B,]2 [B,,F,]2 [B,,B,]2 | [C,A,]>[D,B,] [E,G,]2 [E,C]2 [E,B,]2 | %6
 [D,B,]>[D,B,] [C,B,]2 [C,B,]2 [C,G,]2 | [C,B,]2 [F,A,]2 [F,A,]>[G,B,] [F,A,]>[E,C] | %8
 [D,B,]>[C,A,] [B,,B,]2 [B,,B,]2 [B,,F,]2 | [B,,B,]>[B,,B,] [E,B,]2 [E,B,]2 [E,B,]2 | %10
 [C,A,]>[D,_A,] [E,G,]2 [E,G,]2 [F,C]2 | [F,A,]>[F,C] [B,,B,]2 [B,,B,]2 [B,,B,]2 | %12
 [D,B,]>[F,A,] B,2 [B,D]2 [B,D]2 | [A,C]>B, [E,E]2 [E,B,]2 [E,B,]2 | %14
 [E,B,]>[E,B,] [D,B,]2 [E,B,]2 [F,B,]2 | [F,A,]2 B,2 G,>G, F,2- | F,6 z2 |] %17
V:4
 x8 | x8 | x8 | x8 | x8 | x8 | x8 | x8 | x8 | x8 | x8 | x8 | x8 | x8 | x8 | z2 B,,6- | B,,6 z2 |] %17

